X: 939
T: The new century
C: anon.
O: Ireland
B: Francis O'Neill: "The Dance Music of Ireland" (1907) no. 939
R: Hornpipe
Z: Transcribed by Frank Nordberg - http://www.musicaviva.com
F: http://www.musicaviva.com/abc/tunes/ireland/oneill-1001/oneill-1001-093
9.abc
M: C|
L: 1/8
K: G
(Bc)|dBGA GB (3(dcB)|cAFE FG (3(ABc)|BAGF G(Bdf)|gb (3(agf) (ga)ge|dgd(B
G2)AB|cfc(A F2)GA|BGgd e(cdF)|AGGFG2:|
|:(GA)|Bcd(e fdc)A|d(DEF) (GFG)A|Bcd(e fd)g(e|af)dc d2(3(def)|g(dBG) e(cA
F)|G(FGA) BGEF|GDBG c(edF)|AGGF G2:|
W:
W:
W: From Musica Viva - http://www.musicaviva.com
W: the Internet center for free sheet music downloads.


